resources/images/mug.svg

<svg xmlns="http://www.w3.org/2000/svg" xmlns:xlink="http://www.w3.org/1999/xlink" preserveAspectRatio="none" width="285" height="427" viewBox="0 0 285 427"><defs><radialGradient id="a" gradientUnits="userSpaceOnUse" cx="0" cy="0" r="76.156" fx="0" fy="0" gradientTransform="matrix(.09651 -.99533 .70908 .06877 63.3 198.75)" spreadMethod="pad"><stop offset="66.275%" stop-color="#012F87"/><stop offset="91.765%" stop-color="#0150D1"/><stop offset="100%" stop-color="#012F87"/></radialGradient><linearGradient id="b" gradientUnits="userSpaceOnUse" x1="87.237" y1="228.1" x2="279.462" y2="228.1" spreadMethod="pad"><stop offset="7.059%" stop-color="#014BBA"/><stop offset="71.373%" stop-color="#5084FC"/></linearGradient><linearGradient id="c" gradientUnits="userSpaceOnUse" x1="96.987" y1="107.4" x2="269.212" y2="107.4" spreadMethod="pad"><stop offset="0%" stop-color="#0345A7"/><stop offset="21.176%" stop-color="#3572FD"/><stop offset="100%" stop-color="#0348AF"/></linearGradient><g id="d"><path fill="url(#a)" d="M58.4 142.8q4.1-.1 7.7 1.1 8.1 2.5 13.1 11.2 7.1 12 8.3 12.05-.2-9.75-.2-18.1 0-13.75.25-23.4-1 .55-4.1.8-6.6.5-17.75-1.5-14.95-2.6-28.25 5.05-11.7 6.7-21.65 24.15-10 17.45-10.25 49.05-.2 31.45 11.4 51.75 11.6 20.4 32.2 23.9 13.2 2.3 22.3 1.45 12.75-1 19.5-7.5-.5-7.6-.75-14.75l-.4-10.25q-9.35 12.95-27.2 11.85-17.8-1.15-27.25-18.05-9.4-16.9-9.4-40.85 0-23.9 9.4-40.85 9.45-16.85 23.05-17.1z"/><path fill="#1069FE" d="M278.65 110.3l.15-3.35q-.05-.3-.05-.4l-.1 3.75z"/><path fill="url(#b)" d="M183.75 136h-.65q-36-.05-62.2-6.9-.2-.05-.3-.05h-.1q-1.95-.65-4-1.15-1-.3-1.95-.65-25-7.55-25.75-18.3-.9 5.65-1.25 16.7-.25 9.65-.25 23.4 0 8.35.2 18.1.45 32.15 2.3 80.65l.4 10.25q.25 7.15.75 14.75.75 21.55 1.95 45.7 1.05 11.7 25.95 20 25.95 8.75 62.8 8.75 36.8 0 62.8-8.75 25-8.3 26.05-20 11.85-210.95 8.15-208.2-2.3 9.8-25.65 16.95l-1.75.6q-.05.05-.2.05-.25.05-.75.2l-3.7 1.05h-.05q-.15 0-.2.1-20 5.15-45.5 6.35-.2 0-.45.05-8.05.35-16.65.35z"/><path fill="#4259FF" d="M251.05 88.5q-2.9-.8-5.85-1.6-3.25-.8-6.65-1.45-3.35-.75-6.9-1.4h-.2q-16.15-2.8-35.25-3.45-6.05-.25-12.45-.25h-.65q-35.8.1-61.95 6.8-.05 0-.2.1-2.2.7-4.45 1.25-.8.2-1.6.5-25.8 7.9-26.2 18.9l.1 1.05q.75 10.75 25.75 18.3.95.35 1.95.65 2.05.5 4 1.15h.1q.1 0 .3.05 26.2 6.85 62.2 6.9h.65q8.6 0 16.65-.35.25-.05.45-.05 25.5-1.2 45.5-6.35.05-.1.2-.1h.05l3.7-1.05q.5-.15.75-.2.15 0 .2-.05l1.75-.6q23.35-7.15 25.65-16.95l.1-3.75q-2.05-10.6-27.7-18.05m-7.1 3.15q2.9.8 5.45 1.55 18.05 5.65 19.7 12.95 1.45 8.5-18.15 14.95-2.95.8-6.15 1.65-19.5 5.2-44.45 6.55-8.3.45-17.25.45-35.75 0-60.9-6.55-3.1-.85-5.75-1.7-18.75-5.7-19.4-13.45l-.05-.85q.4-8 19.4-13.85 2.65-.9 5.8-1.7 25.15-6.5 60.9-6.5 6.65 0 13.1.3 18.85.65 34.45 3.35 3.55.6 6.95 1.45 3.15.6 6.35 1.4z"/><path fill="url(#c)" d="M249.4 93.2q-2.55-.75-5.45-1.55-3.2-.8-6.35-1.4-3.4-.85-6.95-1.45-15.6-2.7-34.45-3.35-6.45-.3-13.1-.3-35.75 0-60.9 6.5-3.15.8-5.8 1.7-19 5.85-19.4 13.85l.05.85q.65 7.75 19.4 13.45 2.65.85 5.75 1.7 25.15 6.55 60.9 6.55 8.95 0 17.25-.45 24.95-1.35 44.45-6.55 3.2-.85 6.15-1.65 19.6-6.45 18.15-14.95-1.65-7.3-19.7-12.95z"/></g><path id="e" stroke="#000" stroke-width="2" stroke-linejoin="round" stroke-linecap="round" fill="none" d="M278.75 106.55q-2.05-10.6-27.7-18.05-2.9-.8-5.85-1.6-3.25-.8-6.65-1.45-3.35-.75-6.9-1.4h-.2q-16.15-2.8-35.25-3.45-6.05-.25-12.45-.25m-.65 0q-35.8.1-61.95 6.8-.05 0-.2.1-2.2.7-4.45 1.25-.8.2-1.6.5-25.8 7.9-26.2 18.9l.1 1.05q.75 10.75 25.75 18.3.95.35 1.95.65 2.05.5 4 1.15h.1q.1 0 .3.05 26.2 6.85 62.2 6.9h.65q8.6 0 16.65-.35.25-.05.45-.05 25.5-1.2 45.5-6.35.05-.1.2-.1h.05l3.7-1.05q.5-.15.75-.2.15 0 .2-.05l1.75-.6q23.35-7.15 25.65-16.95m.1-3.75q0 .1.05.4.05.7.05 1.25 0 1-.2 2.1 3.7-2.75-8.15 208.2-1.05 11.7-26.05 20-26 8.75-62.8 8.75-36.85 0-62.8-8.75-24.9-8.3-25.95-20-1.2-24.15-1.95-45.7-6.75 6.5-19.5 7.5-9.1.85-22.3-1.45-20.6-3.5-32.2-23.9-11.6-20.3-11.4-51.75.25-31.6 10.25-49.05Q25.75 136.7 37.45 130q13.3-7.65 28.25-5.05 11.15 2 17.75 1.5 3.1-.25 4.1-.8.35-11.05 1.25-16.7-.1-.35-.1-.75v-.3m8.3-.7q.4-8 19.4-13.85 2.65-.9 5.8-1.7 25.15-6.5 60.9-6.5 6.65 0 13.1.3 18.85.65 34.45 3.35 3.55.6 6.95 1.45 3.15.6 6.35 1.4 2.9.8 5.45 1.55 18.05 5.65 19.7 12.95 1.45 8.5-18.15 14.95-2.95.8-6.15 1.65-19.5 5.2-44.45 6.55-8.3.45-17.25.45-35.75 0-60.9-6.55-3.1-.85-5.75-1.7-18.75-5.7-19.4-13.45m181.6 2.25l.15-3.35M89.8 247.8q-9.35 12.95-27.2 11.85-17.8-1.15-27.25-18.05-9.4-16.9-9.4-40.85 0-23.9 9.4-40.85 9.45-16.85 23.05-17.1 4.1-.1 7.7 1.1 8.1 2.5 13.1 11.2 7.1 12 8.3 12.05-.2-9.75-.2-18.1 0-13.75.25-23.4M89.8 247.8l.4 10.25q.25 7.15.75 14.75M87.5 167.15q.45 32.15 2.3 80.65"/></defs><g><use xlink:href="#d"/><use xlink:href="#e"/></g></svg>

<svg xmlns="http://www.w3.org/2000/svg" version="1.1" xmlns:xlink="http://www.w3.org/1999/xlink" preserveAspectRatio="none" x="0px" y="0px" width="285px" height="427px" viewBox="0 0 285 427">
<defs>
<radialGradient id="Gradient_1" gradientUnits="userSpaceOnUse" cx="0" cy="0" r="76.15551523034954" fx="0" fy="0" gradientTransform="matrix( 0.09651303622289557, -0.9953317205027871, 0.7090753681682124, 0.06877374519964838, 63.3,198.75) " spreadMethod="pad">
<stop  offset="66.27450980392157%" stop-color="#012F87"/>

<stop  offset="91.76470588235294%" stop-color="#0150D1"/>

<stop  offset="100%" stop-color="#012F87"/>
</radialGradient>

<linearGradient id="Gradient_2" gradientUnits="userSpaceOnUse" x1="87.23749999999998" y1="228.1" x2="279.4625" y2="228.1" spreadMethod="pad">
<stop  offset="7.0588235294117645%" stop-color="#014BBA"/>

<stop  offset="71.37254901960785%" stop-color="#5084FC"/>
</linearGradient>

<linearGradient id="Gradient_3" gradientUnits="userSpaceOnUse" x1="96.98749999999998" y1="107.4" x2="269.2125" y2="107.4" spreadMethod="pad">
<stop  offset="0%" stop-color="#0345A7"/>

<stop  offset="21.176470588235293%" stop-color="#3572FD"/>

<stop  offset="100%" stop-color="#0348AF"/>
</linearGradient>

<g id="Layer0_0_FILL">
<path fill="url(#Gradient_1)" stroke="none" d="
M 58.4 142.8
Q 62.5 142.7 66.1 143.9 74.2 146.4 79.2 155.1 86.3 167.1 87.5 167.15 87.3 157.4 87.3 149.05 87.3 135.3 87.55 125.65 86.55 126.2 83.45 126.45 76.85 126.95 65.7 124.95 50.75 122.35 37.45 130 25.75 136.7 15.8 154.15 5.8 171.6 5.55 203.2 5.35 234.65 16.95 254.95 28.55 275.35 49.15 278.85 62.35 281.15 71.45 280.3 84.2 279.3 90.95 272.8 90.45 265.2 90.2 258.05 90 252.9 89.8 247.8 80.45 260.75 62.6 259.65 44.8 258.5 35.35 241.6 25.95 224.7 25.95 200.75 25.95 176.85 35.35 159.9 44.8 143.05 58.4 142.8 Z"/>

<path fill="#1069FE" stroke="none" d="
M 278.65 110.3
L 278.8 106.95
Q 278.75 106.65 278.75 106.55
L 278.65 110.3 Z"/>

<path fill="url(#Gradient_2)" stroke="none" d="
M 183.75 136
Q 183.45 136 183.1 136 147.1 135.95 120.9 129.1 120.7 129.05 120.6 129.05
L 120.5 129.05
Q 118.55 128.4 116.5 127.9 115.5 127.6 114.55 127.25 89.55 119.7 88.8 108.95 87.9 114.6 87.55 125.65 87.3 135.3 87.3 149.05 87.3 157.4 87.5 167.15 87.95 199.3 89.8 247.8 90 252.9 90.2 258.05 90.45 265.2 90.95 272.8 91.7 294.35 92.9 318.5 93.95 330.2 118.85 338.5 144.8 347.25 181.65 347.25 218.45 347.25 244.45 338.5 269.45 330.2 270.5 318.5 282.35 107.55 278.65 110.3 276.35 120.1 253 127.25
L 251.25 127.85
Q 251.2 127.9 251.05 127.9 250.8 127.95 250.3 128.1
L 246.6 129.15 246.55 129.15
Q 246.4 129.15 246.35 129.25 226.35 134.4 200.85 135.6 200.65 135.6 200.4 135.65 192.35 136 183.75 136 Z"/>

<path fill="#4259FF" stroke="none" d="
M 251.05 88.5
Q 248.15 87.7 245.2 86.9 241.95 86.1 238.55 85.45 235.2 84.7 231.65 84.05 231.5 84.05 231.45 84.05 215.3 81.25 196.2 80.6 190.15 80.35 183.75 80.35
L 183.1 80.35
Q 147.3 80.45 121.15 87.15 121.1 87.15 120.95 87.25 118.75 87.95 116.5 88.5 115.7 88.7 114.9 89 89.1 96.9 88.7 107.9
L 88.8 108.95
Q 89.55 119.7 114.55 127.25 115.5 127.6 116.5 127.9 118.55 128.4 120.5 129.05
L 120.6 129.05
Q 120.7 129.05 120.9 129.1 147.1 135.95 183.1 136 183.45 136 183.75 136 192.35 136 200.4 135.65 200.65 135.6 200.85 135.6 226.35 134.4 246.35 129.25 246.4 129.15 246.55 129.15
L 246.6 129.15 250.3 128.1
Q 250.8 127.95 251.05 127.9 251.2 127.9 251.25 127.85
L 253 127.25
Q 276.35 120.1 278.65 110.3
L 278.75 106.55
Q 276.7 95.95 251.05 88.5
M 243.95 91.65
Q 246.85 92.45 249.4 93.2 267.45 98.85 269.1 106.15 270.55 114.65 250.95 121.1 248 121.9 244.8 122.75 225.3 127.95 200.35 129.3 192.05 129.75 183.1 129.75 147.35 129.75 122.2 123.2 119.1 122.35 116.45 121.5 97.7 115.8 97.05 108.05
L 97 107.2
Q 97.4 99.2 116.4 93.35 119.05 92.45 122.2 91.65 147.35 85.15 183.1 85.15 189.75 85.15 196.2 85.45 215.05 86.1 230.65 88.8 234.2 89.4 237.6 90.25 240.75 90.85 243.95 91.65 Z"/>

<path fill="url(#Gradient_3)" stroke="none" d="
M 249.4 93.2
Q 246.85 92.45 243.95 91.65 240.75 90.85 237.6 90.25 234.2 89.4 230.65 88.8 215.05 86.1 196.2 85.45 189.75 85.15 183.1 85.15 147.35 85.15 122.2 91.65 119.05 92.45 116.4 93.35 97.4 99.2 97 107.2
L 97.05 108.05
Q 97.7 115.8 116.45 121.5 119.1 122.35 122.2 123.2 147.35 129.75 183.1 129.75 192.05 129.75 200.35 129.3 225.3 127.95 244.8 122.75 248 121.9 250.95 121.1 270.55 114.65 269.1 106.15 267.45 98.85 249.4 93.2 Z"/>
</g>

<path id="Layer0_0_1_STROKES" stroke="#000000" stroke-width="2" stroke-linejoin="round" stroke-linecap="round" fill="none" d="
M 278.75 106.55
Q 276.7 95.95 251.05 88.5 248.15 87.7 245.2 86.9 241.95 86.1 238.55 85.45 235.2 84.7 231.65 84.05 231.5 84.05 231.45 84.05 215.3 81.25 196.2 80.6 190.15 80.35 183.75 80.35
M 183.1 80.35
Q 147.3 80.45 121.15 87.15 121.1 87.15 120.95 87.25 118.75 87.95 116.5 88.5 115.7 88.7 114.9 89 89.1 96.9 88.7 107.9
L 88.8 108.95
Q 89.55 119.7 114.55 127.25 115.5 127.6 116.5 127.9 118.55 128.4 120.5 129.05
L 120.6 129.05
Q 120.7 129.05 120.9 129.1 147.1 135.95 183.1 136 183.45 136 183.75 136 192.35 136 200.4 135.65 200.65 135.6 200.85 135.6 226.35 134.4 246.35 129.25 246.4 129.15 246.55 129.15
L 246.6 129.15 250.3 128.1
Q 250.8 127.95 251.05 127.9 251.2 127.9 251.25 127.85
L 253 127.25
Q 276.35 120.1 278.65 110.3
M 278.75 106.55
Q 278.75 106.65 278.8 106.95 278.85 107.65 278.85 108.2 278.85 109.2 278.65 110.3 282.35 107.55 270.5 318.5 269.45 330.2 244.45 338.5 218.45 347.25 181.65 347.25 144.8 347.25 118.85 338.5 93.95 330.2 92.9 318.5 91.7 294.35 90.95 272.8 84.2 279.3 71.45 280.3 62.35 281.15 49.15 278.85 28.55 275.35 16.95 254.95 5.35 234.65 5.55 203.2 5.8 171.6 15.8 154.15 25.75 136.7 37.45 130 50.75 122.35 65.7 124.95 76.85 126.95 83.45 126.45 86.55 126.2 87.55 125.65 87.9 114.6 88.8 108.95 88.7 108.6 88.7 108.2 88.7 108 88.7 107.9
M 97 107.2
Q 97.4 99.2 116.4 93.35 119.05 92.45 122.2 91.65 147.35 85.15 183.1 85.15 189.75 85.15 196.2 85.45 215.05 86.1 230.65 88.8 234.2 89.4 237.6 90.25 240.75 90.85 243.95 91.65 246.85 92.45 249.4 93.2 267.45 98.85 269.1 106.15 270.55 114.65 250.95 121.1 248 121.9 244.8 122.75 225.3 127.95 200.35 129.3 192.05 129.75 183.1 129.75 147.35 129.75 122.2 123.2 119.1 122.35 116.45 121.5 97.7 115.8 97.05 108.05
M 278.65 110.3
L 278.8 106.95
M 89.8 247.8
Q 80.45 260.75 62.6 259.65 44.8 258.5 35.35 241.6 25.95 224.7 25.95 200.75 25.95 176.85 35.35 159.9 44.8 143.05 58.4 142.8 62.5 142.7 66.1 143.9 74.2 146.4 79.2 155.1 86.3 167.1 87.5 167.15 87.3 157.4 87.3 149.05 87.3 135.3 87.55 125.65
M 89.8 247.8
Q 90 252.9 90.2 258.05 90.45 265.2 90.95 272.8
M 87.5 167.15
Q 87.95 199.3 89.8 247.8"/>
</defs>

<g transform="matrix( 1, 0, 0, 1, 0,0) ">
<use xlink:href="#Layer0_0_FILL"/>

<use xlink:href="#Layer0_0_1_STROKES"/>
</g>
</svg>
